X:0135
T:Up wi't Ailly now.
M:9/8
L:1/8
Q:3/8=120
I: :: ::
Z:Jack Campin * www.campin.me.uk * 2009
K:A Mixolydian
A2a e2c e2c|A2a e2c d2B|A2a e2c e2f|gag B2c dcB:|
A2c cec cec|A2c cBc dcB|A2c cec cef|gag B2c dcB:|
<end>
<start>
